SVG_Azure_Grouped/Networking/Internet Analyzer Profile.svg

<?xml version="1.0" encoding="UTF-8" standalone="no"?>
<!-- Generated by Microsoft Visio, SVG Export Internet Analyzer Profile.svg Page-1 -->

<svg
   xmlns:dc="http://purl.org/dc/elements/1.1/"
   xmlns:cc="http://creativecommons.org/ns#"
   xmlns:rdf="http://www.w3.org/1999/02/22-rdf-syntax-ns#"
   xmlns:svg="http://www.w3.org/2000/svg"
   xmlns="http://www.w3.org/2000/svg"
   xmlns:sodipodi="http://sodipodi.sourceforge.net/DTD/sodipodi-0.dtd"
   xmlns:inkscape="http://www.inkscape.org/namespaces/inkscape"
   width="0.78739709in"
   height="0.78739709in"
   viewBox="0 0 56.692498 56.692901"
   xml:space="preserve"
   class="st6"
   version="1.1"
   id="svg73"
   sodipodi:docname="Internet Analyzer Profile.svg"
   style="font-size:12px;overflow:visible;color-interpolation-filters:sRGB;fill:none;fill-rule:evenodd;stroke-linecap:square;stroke-miterlimit:3"
   inkscape:version="0.92.5 (2060ec1f9f, 2020-04-08)"><metadata
   id="metadata77"><rdf:RDF><cc:Work
       rdf:about=""><dc:format>image/svg+xml</dc:format><dc:type
         rdf:resource="http://purl.org/dc/dcmitype/StillImage" /></cc:Work></rdf:RDF></metadata><sodipodi:namedview
   pagecolor="#ffffff"
   bordercolor="#666666"
   borderopacity="1"
   objecttolerance="10"
   gridtolerance="10"
   guidetolerance="10"
   inkscape:pageopacity="0"
   inkscape:pageshadow="2"
   inkscape:window-width="640"
   inkscape:window-height="480"
   id="namedview75"
   showgrid="false"
   inkscape:zoom="1.4193119"
   inkscape:cx="37.795128"
   inkscape:cy="37.78433"
   inkscape:window-x="0"
   inkscape:window-y="0"
   inkscape:window-maximized="0"
   inkscape:current-layer="svg73" />
	<style
   type="text/css"
   id="style2">
	<![CDATA[
		.st1 {fill:none;stroke:none;stroke-linecap:butt;stroke-width:34}
		.st2 {fill:url(#grad0-10);stroke:none;stroke-linecap:butt;stroke-width:34}
		.st3 {fill:#ffffff;stroke:none;stroke-linecap:butt;stroke-width:34}
		.st4 {fill:#50e6ff;stroke:none;stroke-linecap:butt;stroke-width:34}
		.st5 {fill:#86d633;stroke:none;stroke-linecap:butt;stroke-width:34}
		.st6 {fill:none;fill-rule:evenodd;font-size:12px;overflow:visible;stroke-linecap:square;stroke-miterlimit:3}
	]]>
	</style>

	<defs
   id="Patterns_And_Gradients">
		<linearGradient
   id="grad0-10"
   x1="0"
   y1="103.13327"
   x2="44.981871"
   y2="103.13327"
   gradientTransform="scale(1.1875895,0.84204176)"
   gradientUnits="userSpaceOnUse">
			<stop
   offset="0"
   stop-color="#0078d4"
   stop-opacity="1"
   id="stop4" />
			<stop
   offset="0.105"
   stop-color="#1480da"
   stop-opacity="1"
   id="stop6" />
			<stop
   offset="0.305"
   stop-color="#348ee3"
   stop-opacity="1"
   id="stop8" />
			<stop
   offset="0.5"
   stop-color="#4b98ea"
   stop-opacity="1"
   id="stop10" />
			<stop
   offset="0.68"
   stop-color="#599eee"
   stop-opacity="1"
   id="stop12" />
			<stop
   offset="0.84"
   stop-color="#5ea0ef"
   stop-opacity="1"
   id="stop14" />
		</linearGradient>
	</defs>
	<g
   id="g71"
   transform="translate(-34.000441,-34.000001)">
		<title
   id="title18">Page-1</title>
		<g
   id="group17943-1"
   transform="translate(34,-34.0157)">
			<title
   id="title20">Internet Analyzer Profile.17943</title>
			<g
   id="group17944-2">
				<title
   id="title22">Icon-469-Internet-Analyzer</title>
				<g
   id="shape17945-3">
					<title
   id="title24">Sheet.17945</title>
					<rect
   x="0"
   y="68.015701"
   width="56.692902"
   height="56.692902"
   class="st1"
   id="rect26"
   style="fill:none;stroke:none;stroke-width:34;stroke-linecap:butt" />
				</g>
				<g
   id="shape17946-5">
					<title
   id="title29">Sheet.17946</title>
					<rect
   x="0"
   y="68.015701"
   width="56.692902"
   height="56.692902"
   class="st1"
   id="rect31"
   style="fill:none;stroke:none;stroke-width:34;stroke-linecap:butt" />
				</g>
				<g
   id="shape17947-7"
   transform="translate(0.664567,-16.611)">
					<title
   id="title34">Sheet.17947</title>
					<path
   d="M 53.42,112.85 A 12.0031,12.0031 -180 0 0 43.01,101.32 15.1181,15.1181 -180 0 0 27.43,86.85 15.515,15.515 -180 0 0 12.6,96.96 14.3213,14.3213 -180 0 0 0,110.74 14.5354,14.5354 -180 0 0 15.04,124.71 c 0.45,0 0.89,-0.02 1.33,-0.06 h 24.35 a 2.42205,2.42205 -180 0 0 0.63,-0.1 12.1417,12.1417 -180 0 0 12.07,-11.7 z"
   class="st2"
   id="path36"
   inkscape:connector-curvature="0"
   style="fill:url(#grad0-10);stroke:none;stroke-width:34;stroke-linecap:butt" />
				</g>
				<g
   id="shape17948-11"
   transform="translate(24.5134,-32.4504)">
					<title
   id="title39">Sheet.17948</title>
					<circle
   cx="4.1511798"
   cy="120.557"
   class="st3"
   id="ellipse41"
   r="4.1511798"
   style="fill:#ffffff;stroke:none;stroke-width:34;stroke-linecap:butt" />
				</g>
				<g
   id="shape17949-13"
   transform="translate(36.6488,-29.1024)">
					<title
   id="title44">Sheet.17949</title>
					<ellipse
   cx="3.3291299"
   cy="121.364"
   rx="3.3291299"
   ry="3.3448801"
   class="st3"
   id="ellipse46"
   style="fill:#ffffff;stroke:none;stroke-width:34;stroke-linecap:butt" />
				</g>
				<g
   id="shape17950-15"
   transform="translate(30.4913,-42.9827)">
					<title
   id="title49">Sheet.17950</title>
					<circle
   cx="2.32441"
   cy="122.384"
   class="st3"
   id="ellipse51"
   r="2.32441"
   style="fill:#ffffff;stroke:none;stroke-width:34;stroke-linecap:butt" />
				</g>
				<g
   id="shape17951-17"
   transform="translate(26.148,-2.20472)">
					<title
   id="title54">Sheet.17951</title>
					<path
   d="M 28.79,124.71 H 1.39 c -0.88,0 -1.39,-1.4 -0.9,-2.11 l 9.45,-13.77 a 1.10551,1.10551 -180 0 0 0.2,-0.63 V 99.11 A 0.544882,0.544882 -180 0 0 9.591969,98.568268 L 9.08,98.57 A 1.08346,1.08346 0 0 1 8,97.48 V 96.99 A 1.08346,1.08346 0 0 1 9.08,95.91 H 21.1 a 1.08346,1.08346 0 0 1 1.08,1.08 v 0.49 a 1.08346,1.08346 0 0 1 -1.08,1.09 h -0.51 a 0.541732,0.541732 -180 0 0 -0.541732,0.541732 L 20.05,108.23 a 1.06772,1.06772 -180 0 0 0.19,0.63 l 9.45,13.74 c 0.49,0.7 -0.03,2.11 -0.9,2.11 z"
   class="st4"
   id="path56"
   inkscape:connector-curvature="0"
   style="fill:#50e6ff;stroke:none;stroke-width:34;stroke-linecap:butt" />
				</g>
				<g
   id="shape17952-19"
   transform="translate(30.6621,-4.91654)">
					<title
   id="title59">Sheet.17952</title>
					<path
   d="m 0.03,123.73 7.18,-10.46 a 2.60472,2.60472 -180 0 0 0.46,-1.48 v -4.21 a 0.834646,0.834646 0 0 1 0.834646,-0.83465 L 12.57,106.74 a 0.834646,0.834646 0 0 1 0.834646,0.83465 L 13.4,112.08 a 1.74173,1.74173 -180 0 0 0.32,0.99 l 7.32,10.66 a 0.629921,0.629921 0 0 1 -0.513386,0.97953 L 0.55,124.71 a 0.629921,0.629921 0 0 1 -0.513386,-0.97953 z"
   class="st3"
   id="path61"
   inkscape:connector-curvature="0"
   style="fill:#ffffff;stroke:none;stroke-width:34;stroke-linecap:butt" />
				</g>
				<g
   id="shape17953-21"
   transform="translate(31.789,-5.8363)">
					<title
   id="title64">Sheet.17953</title>
					<path
   d="m 5.85,121.2 1.45,3.38 a 0.207874,0.207874 -180 0 0 0.390551,-0.0157 L 9.22,120.04 a 0.207874,0.207874 0 0 1 0.384252,-0.0315 L 10.84,122.38 a 0.211024,0.211024 -180 0 0 0.365354,0 L 12.87,119.58 a 0.207874,0.207874 0 0 1 0.182677,-0.10394 L 16.38,119.47 15.7,118.49 a 0.207874,0.207874 -180 0 0 -0.173228,-0.0913 L 12.44,118.4 a 0.211024,0.211024 -180 0 0 -0.182677,0.10079 L 11.27,120.18 a 0.207874,0.207874 0 0 1 -0.365354,0 L 9.39,117.3 a 0.207874,0.207874 -180 0 0 -0.384252,0.0315 L 7.58,121.57 a 0.207874,0.207874 0 0 1 -0.390551,0.0158 L 5.97,118.76 a 0.207874,0.207874 -180 0 0 -0.374803,0 L 3.87,121.91 a 0.211024,0.211024 0 0 1 -0.185827,0.10709 L 0.85,122.01 a 0.214173,0.214173 -180 0 0 -0.173228,0.0913 L 0,123.08 h 4.31 a 0.211024,0.211024 -180 0 0 0.185827,-0.10709 L 5.47,121.2 a 0.207874,0.207874 0 0 1 0.374803,0.006 z"
   class="st5"
   id="path66"
   inkscape:connector-curvature="0"
   style="fill:#86d633;stroke:none;stroke-width:34;stroke-linecap:butt" />
				</g>
			</g>
		</g>
	</g>
</svg>

<?xml version="1.0" encoding="UTF-8" standalone="no"?>
<!DOCTYPE svg PUBLIC "-//W3C//DTD SVG 1.1//EN" "http://www.w3.org/Graphics/SVG/1.1/DTD/svg11.dtd">
<!-- Generated by Microsoft Visio, SVG Export Internet Analyzer Profile.svg Page-1 -->
<svg xmlns="http://www.w3.org/2000/svg" xmlns:xlink="http://www.w3.org/1999/xlink" xmlns:ev="http://www.w3.org/2001/xml-events"
		width="1.73185in" height="1.73206in" viewBox="0 0 124.693 124.709" xml:space="preserve" color-interpolation-filters="sRGB"
		class="st6">
	<style type="text/css">
	<![CDATA[
		.st1 {fill:none;stroke:none;stroke-linecap:butt;stroke-width:34}
		.st2 {fill:url(#grad0-10);stroke:none;stroke-linecap:butt;stroke-width:34}
		.st3 {fill:#ffffff;stroke:none;stroke-linecap:butt;stroke-width:34}
		.st4 {fill:#50e6ff;stroke:none;stroke-linecap:butt;stroke-width:34}
		.st5 {fill:#86d633;stroke:none;stroke-linecap:butt;stroke-width:34}
		.st6 {fill:none;fill-rule:evenodd;font-size:12px;overflow:visible;stroke-linecap:square;stroke-miterlimit:3}
	]]>
	</style>

	<defs id="Patterns_And_Gradients">
		<linearGradient id="grad0-10" x1="0" y1="0" x2="1" y2="0" gradientTransform="rotate(-90 0.5 0.5)">
			<stop offset="0" stop-color="#0078d4" stop-opacity="1"/>
			<stop offset="0.105" stop-color="#1480da" stop-opacity="1"/>
			<stop offset="0.305" stop-color="#348ee3" stop-opacity="1"/>
			<stop offset="0.5" stop-color="#4b98ea" stop-opacity="1"/>
			<stop offset="0.68" stop-color="#599eee" stop-opacity="1"/>
			<stop offset="0.84" stop-color="#5ea0ef" stop-opacity="1"/>
		</linearGradient>
	</defs>
	<g>
		<title>Page-1</title>
		<g id="group17538-1" transform="translate(34,-34.0157)">
			<title>Internet Analyzer Profile.17538</title>
			<g id="group17539-2">
				<title>Icon-469-Internet-Analyzer</title>
				<g id="shape17540-3">
					<title>Sheet.17540</title>
					<rect x="0" y="68.0157" width="56.6929" height="56.6929" class="st1"/>
				</g>
				<g id="shape17541-5">
					<title>Sheet.17541</title>
					<rect x="0" y="68.0157" width="56.6929" height="56.6929" class="st1"/>
				</g>
				<g id="shape17542-7" transform="translate(0.664567,-16.611)">
					<title>Sheet.17542</title>
					<path d="M53.42 112.85 A12.0031 12.0031 -180 0 0 43.01 101.32 A15.1181 15.1181 -180 0 0 27.43 86.85 A15.515 15.515
								 -180 0 0 12.6 96.96 A14.3213 14.3213 -180 0 0 -0 110.74 A14.5354 14.5354 -180 0 0 15.04 124.71 C15.49
								 124.71 15.93 124.69 16.37 124.65 L40.72 124.65 A2.42205 2.42205 -180 0 0 41.35 124.55 A12.1417 12.1417
								 -180 0 0 53.42 112.85 Z" class="st2"/>
				</g>
				<g id="shape17543-11" transform="translate(24.5134,-32.4504)">
					<title>Sheet.17543</title>
					<ellipse cx="4.15118" cy="120.557" rx="4.15118" ry="4.15118" class="st3"/>
				</g>
				<g id="shape17544-13" transform="translate(36.6488,-29.1024)">
					<title>Sheet.17544</title>
					<ellipse cx="3.32913" cy="121.364" rx="3.32913" ry="3.34488" class="st3"/>
				</g>
				<g id="shape17545-15" transform="translate(30.4913,-42.9827)">
					<title>Sheet.17545</title>
					<ellipse cx="2.32441" cy="122.384" rx="2.32441" ry="2.32441" class="st3"/>
				</g>
				<g id="shape17546-17" transform="translate(26.148,-2.20472)">
					<title>Sheet.17546</title>
					<path d="M28.79 124.71 L1.39 124.71 C0.51 124.71 0 123.31 0.49 122.6 L9.94 108.83 A1.10551 1.10551 -180 0 0 10.14
								 108.2 L10.14 99.11 a0.544882 0.544882 -180 0 0 -0.548031 -0.541732 L9.08 98.57 A1.08346 1.08346
								 0 0 1 8 97.48 L8 96.99 A1.08346 1.08346 0 0 1 9.08 95.91 L21.1 95.91 A1.08346 1.08346 0 0 1 22.18
								 96.99 L22.18 97.48 A1.08346 1.08346 0 0 1 21.1 98.57 L20.59 98.57 a0.541732 0.541732 -180 0 0 -0.541732
								 0.541732 L20.05 108.23 A1.06772 1.06772 -180 0 0 20.24 108.86 L29.69 122.6 C30.18 123.3 29.66 124.71
								 28.79 124.71 Z" class="st4"/>
				</g>
				<g id="shape17547-19" transform="translate(30.6621,-4.91654)">
					<title>Sheet.17547</title>
					<path d="M0.03 123.73 L7.21 113.27 A2.60472 2.60472 -180 0 0 7.67 111.79 L7.67 107.58 a0.834646 0.834646 0 0
								 1 0.834646 -0.834646 L12.57 106.74 a0.834646 0.834646 0 0 1 0.834646 0.834646 L13.4 112.08 A1.74173
								 1.74173 -180 0 0 13.72 113.07 L21.04 123.73 a0.629921 0.629921 0 0 1 -0.513386 0.979528 L0.55 124.71
								 a0.629921 0.629921 0 0 1 -0.513386 -0.979528 Z" class="st3"/>
				</g>
				<g id="shape17548-21" transform="translate(31.789,-5.8363)">
					<title>Sheet.17548</title>
					<path d="M5.85 121.2 L7.3 124.58 a0.207874 0.207874 -180 0 0 0.390551 -0.015748 L9.22 120.04 a0.207874 0.207874
								 0 0 1 0.384252 -0.0314961 L10.84 122.38 a0.211024 0.211024 -180 0 0 0.365354 0 L12.87 119.58 a0.207874
								 0.207874 0 0 1 0.182677 -0.103937 L16.38 119.47 L15.7 118.49 a0.207874 0.207874 -180 0 0 -0.173228
								 -0.0913386 L12.44 118.4 a0.211024 0.211024 -180 0 0 -0.182677 0.100787 L11.27 120.18 a0.207874 0.207874
								 0 0 1 -0.365354 -1.42109E-14 L9.39 117.3 a0.207874 0.207874 -180 0 0 -0.384252 0.0314961 L7.58 121.57
								 a0.207874 0.207874 0 0 1 -0.390551 0.015748 L5.97 118.76 a0.207874 0.207874 -180 0 0 -0.374803 0
								 L3.87 121.91 a0.211024 0.211024 0 0 1 -0.185827 0.107087 L0.85 122.01 a0.214173 0.214173 -180 0
								 0 -0.173228 0.0913386 L0 123.08 L4.31 123.08 a0.211024 0.211024 -180 0 0 0.185827 -0.107087 L5.47
								 121.2 a0.207874 0.207874 0 0 1 0.374803 0.00629921 Z" class="st5"/>
				</g>
			</g>
		</g>
	</g>
</svg>
